X: 20047
T: Jimmy Giblin's
R: reel
M: 4/4
K: Dmajor
|:FAAc d2ef|gefd eBBA|FAAc dfec|1 dBAF EDB,A,:|2 dBAF E2D2||
faaf d2ef|gefd eBBA|faaf d2 fa|b2afe2d2|
faaf d2ef|gefd eBBA|FAAc dfec|dBAF E2D2||

